parts/svg/core/breadboard/Buzzer-v15_breadboard.svg

<?xml version='1.0' encoding='UTF-8' standalone='no'?>
<!-- Created with Fritzing (http://www.fritzing.org/) -->
<svg xmlns="http://www.w3.org/2000/svg" width="0.787402in" x="0in" version="1.2" y="0in" height="0.787402in" viewBox="0 0 56.6929 56.6929" baseProfile="tiny">
 <desc >Fritzing breadboard generated by brd2svg</desc>
 <g  id="breadboard" stroke-width="0">
  <g  id="icon" stroke-width="0">
   <path  fill="#672E58" stroke="none" stroke-width="0.576" d="M0,28.3465a28.3465,28.3465,0,1,0,56.6929,0,28.3465,28.3465,0,1,0,-56.6929,0zM16.6791,34.7244a0.612284,0.612284,0,1,1,1.22457,0,0.612284,0.612284,0,1,1,-1.22457,0zM34.1122,17.2913a0.612284,0.612284,0,1,1,1.22457,0,0.612284,0.612284,0,1,1,-1.22457,0zM8.23745,17.7165a1.68378,1.68378,0,1,1,3.36756,0,1.68378,1.68378,0,1,1,-3.36756,0zM45.0595,38.9764a1.68378,1.68378,0,1,1,3.36756,0,1.68378,1.68378,0,1,1,-3.36756,0z"/>
   <g  stroke-width="0">
    <title >layer 21</title>
    <g  stroke-width="0">
     <title >text:-</title>
     <text  x="16.1065" y="19.3465" font-family="OCRA" fill="white" text-anchor="start" stroke="none" stroke-width="0" font-size="5.8464">-</text>
    </g>
    <g  stroke-width="0">
     <title >text:+</title>
     <text  x="37.3465" y="42.3865" font-family="OCRA" fill="white" text-anchor="start" stroke="none" stroke-width="0" font-size="5.8464">+</text>
    </g>
    <g  stroke-width="0">
     <title >element:B1</title>
     <g  stroke-width="0">
      <title >package:BUZZER-CCV</title>
      <path  fill="none" stroke="white" stroke-width="0.576" d="M31.9465,16.1065A12.6771,12.6771,0,0,0,16.4409,23.811"/>
      <path  fill="none" stroke="white" stroke-width="0.576" d="M40.2265,23.6665A12.7993,12.7993,0,0,0,36.9865,18.9865"/>
      <path  fill="none" stroke="white" stroke-width="0.576" d="M35.7165,38.8346A13.7404,13.7404,0,0,0,40.252,32.8819"/>
      <path  fill="none" stroke="white" stroke-width="0.576" d="M18.9865,36.9865A11.2519,11.2519,0,0,0,20.9764,38.5512"/>
      <line  stroke="white" stroke-linecap="round" y1="45.3543" x1="20.9764" y2="45.3543" stroke-width="0.576" x2="35.7165"/>
      <line  stroke="white" stroke-linecap="round" y1="45.3543" x1="35.7165" y2="38.8346" stroke-width="0.576" x2="35.7165"/>
      <line  stroke="white" stroke-linecap="round" y1="45.3543" x1="20.9764" y2="38.5512" stroke-width="0.576" x2="20.9764"/>
     </g>
    </g>
    <g  stroke-width="0">
     <title >element:U$1</title>
     <g  stroke-width="0">
      <title >package:PETAL-NOHOLE-2SIDE</title>
     </g>
    </g>
    <g  stroke-width="0">
     <title >element:U$2</title>
     <g  stroke-width="0">
      <title >package:LOGO-LILYPAD</title>
     </g>
    </g>
    <g  stroke-width="0">
     <title >element:U$4</title>
     <g  stroke-width="0">
      <title >package:PETAL-NOHOLE-2SIDE</title>
     </g>
    </g>
    <g  stroke-width="0">
     <title >element:U$6</title>
     <g  stroke-width="0">
      <title >package:PETAL-NOHOLE-2SIDE</title>
     </g>
    </g>
    <g  stroke-width="0">
     <title >element:U$7</title>
     <g  stroke-width="0">
      <title >package:PETAL-NOHOLE-2SIDE</title>
     </g>
    </g>
    <g  stroke-width="0">
     <title >element:U$8</title>
     <g  stroke-width="0">
      <title >package:PETAL-SMALL-2SIDE</title>
     </g>
    </g>
    <g  stroke-width="0">
     <title >element:U$9</title>
     <g  stroke-width="0">
      <title >package:PETAL-SMALL-2SIDE</title>
     </g>
    </g>
   </g>
   <g  stroke-width="0">
    <title >layer 1</title>
    <g  stroke-width="0">
     <title >element:B1</title>
     <g  stroke-width="0">
      <title >package:BUZZER-CCV</title>
     </g>
    </g>
    <g  stroke-width="0">
     <title >element:U$1</title>
     <g  stroke-width="0">
      <title >package:PETAL-NOHOLE-2SIDE</title>
      <g  stroke-width="0">
       <title >polygon</title>
       <path  fill="white" stroke="none" stroke-linecap="round" stroke-width="0" d="M48.7001,24.4588L49.6023,23.9641L50.4181,23.3374L51.1285,22.593L51.7167,21.7488L52.1691,20.825L52.475,19.8426L52.6269,18.8252L52.6215,17.7962L52.4591,16.7805L52.1433,15.8012L51.6812,14.8819L51.1163,14.0224L50.4261,13.2591L49.6276,12.6108L48.7392,12.0915L47.7822,11.7145L46.7785,11.488L45.752,11.418L44.727,11.5052L43.7273,11.7482L42.7765,12.1414L41.8969,12.6754L43.0869,12.9059L44.2321,13.3033L45.3092,13.8591L46.2966,14.5627L47.1736,15.3992L47.9228,16.3522L48.5289,17.4019L48.9796,18.5273L49.2656,19.705L49.3812,20.9118L49.324,22.1224L49.0955,23.313L48.7001,24.4588"/>
      </g>
     </g>
    </g>
    <g  stroke-width="0">
     <title >element:U$2</title>
     <g  stroke-width="0">
      <title >package:LOGO-LILYPAD</title>
     </g>
    </g>
    <g  stroke-width="0">
     <title >element:U$4</title>
     <g  stroke-width="0">
      <title >package:PETAL-NOHOLE-2SIDE</title>
      <g  stroke-width="0">
       <title >polygon</title>
       <path  fill="white" stroke="none" stroke-linecap="round" stroke-width="0" d="M35.1496,8.78738L35.1723,7.75872L35.0374,6.7388L34.7479,5.7515L34.3111,4.82003L33.7371,3.96624L33.0392,3.21024L32.2342,2.56989L31.3404,2.06022L30.3795,1.69285L29.3735,1.47685L28.3465,1.41732L27.3195,1.47685L26.3135,1.69285L25.3525,2.06022L24.4588,2.56989L23.6537,3.21024L22.9558,3.96624L22.3818,4.82003L21.945,5.7515L21.6556,6.7388L21.5207,7.75872L21.5433,8.78738L22.3379,7.87212L23.2546,7.07896L24.2745,6.42416L25.3775,5.92101L26.5405,5.57972L27.7404,5.40737L28.9525,5.40737L30.1524,5.57972L31.3155,5.92101L32.4184,6.42416L33.4383,7.07896L34.3551,7.87212L35.1496,8.78738"/>
      </g>
     </g>
    </g>
    <g  stroke-width="0">
     <title >element:U$6</title>
     <g  stroke-width="0">
      <title >package:PETAL-NOHOLE-2SIDE</title>
      <g  stroke-width="0">
       <title >polygon</title>
       <path  fill="white" stroke="none" stroke-linecap="round" stroke-width="0" d="M21.5433,47.9055L21.5207,48.9342L21.6556,49.9541L21.945,50.9414L22.3818,51.8729L22.9558,52.7267L23.6537,53.4827L24.4588,54.123L25.3525,54.6327L26.3135,55.0001L27.3195,55.2161L28.3465,55.2756L29.3735,55.2161L30.3795,55.0001L31.3404,54.6327L32.2342,54.123L33.0392,53.4827L33.7371,52.7267L34.3111,51.8729L34.7479,50.9414L35.0374,49.9541L35.1723,48.9342L35.1496,47.9055L34.3551,48.8208L33.4383,49.614L32.4184,50.2687L31.3155,50.7719L30.1524,51.1132L28.9525,51.2855L27.7404,51.2855L26.5405,51.1132L25.3775,50.7719L24.2745,50.2687L23.2546,49.614L22.3379,48.8208L21.5433,47.9055"/>
      </g>
     </g>
    </g>
    <g  stroke-width="0">
     <title >element:U$7</title>
     <g  stroke-width="0">
      <title >package:PETAL-NOHOLE-2SIDE</title>
      <g  stroke-width="0">
       <title >polygon</title>
       <path  fill="white" stroke="none" stroke-linecap="round" stroke-width="0" d="M7.99286,32.2342L7.09058,32.7288L6.27477,33.3556L5.56441,34.0999L4.97622,34.9441L4.52381,35.8679L4.21795,36.8504L4.06601,37.8678L4.0714,38.8967L4.23382,39.9124L4.54961,40.8918L5.01165,41.811L5.5766,42.6705L6.26684,43.4339L7.06535,44.0821L7.95377,44.6015L8.91072,44.9785L9.91447,45.2049L10.9409,45.275L11.9659,45.1876L12.9657,44.9447L13.9164,44.5516L14.796,44.0175L13.606,43.7871L12.4608,43.3896L11.3836,42.8337L10.3964,42.1302L9.51934,41.2937L8.7701,40.3407L8.16408,39.291L7.71336,38.1657L7.4273,36.9878L7.31167,35.7812L7.36891,34.5705L7.59744,33.3799L7.99286,32.2342"/>
      </g>
     </g>
    </g>
    <g  stroke-width="0">
     <title >element:U$8</title>
     <g  stroke-width="0">
      <title >package:PETAL-SMALL-2SIDE</title>
      <g  stroke-width="0">
       <title >polygon</title>
       <path  fill="white" stroke="none" stroke-linecap="round" stroke-width="0" d="M14.796,12.6754L13.9164,12.1414L12.9657,11.7482L11.9659,11.5052L10.9409,11.418L9.91447,11.488L8.91072,11.7145L7.95377,12.0915L7.06535,12.6108L6.26684,13.2591L5.5766,14.0224L5.01165,14.8819L4.54961,15.8012L4.23382,16.7805L4.0714,17.7962L4.06601,18.8252L4.21795,19.8426L4.52381,20.825L4.97622,21.7488L5.56441,22.593L6.27477,23.3374L7.09058,23.9641L7.99286,24.4588L7.59744,23.313L7.36891,22.1224L7.31167,20.9118L7.4273,19.705L7.71336,18.5273L8.16408,17.4019L8.7701,16.3522L9.51934,15.3992L10.3964,14.5627L11.3836,13.8591L12.4608,13.3033L13.606,12.9059L14.796,12.6754"/>
      </g>
     </g>
    </g>
    <g  stroke-width="0">
     <title >element:U$9</title>
     <g  stroke-width="0">
      <title >package:PETAL-SMALL-2SIDE</title>
      <g  stroke-width="0">
       <title >polygon</title>
       <path  fill="white" stroke="none" stroke-linecap="round" stroke-width="0" d="M41.8686,44.0175L42.7481,44.5516L43.6989,44.9447L44.6987,45.1876L45.7237,45.275L46.7501,45.2049L47.7539,44.9785L48.7108,44.6015L49.5992,44.0821L50.3978,43.4339L51.088,42.6705L51.6529,41.811L52.115,40.8918L52.4308,39.9124L52.5932,38.8967L52.5985,37.8678L52.4466,36.8504L52.1407,35.8679L51.6884,34.9441L51.1001,34.0999L50.3898,33.3556L49.574,32.7288L48.6717,32.2342L49.0671,33.3799L49.2956,34.5705L49.3529,35.7812L49.2372,36.9878L48.9512,38.1657L48.5005,39.291L47.8945,40.3407L47.1452,41.2937L46.2682,42.1302L45.2809,42.8337L44.2038,43.3896L43.0585,43.7871L41.8686,44.0175"/>
      </g>
     </g>
    </g>
   </g>
   <circle  fill="none" cx="9.92124" cy="17.7165" connectorname="-" stroke="#9A916C" r="2.40378" id="connector2pin" stroke-width="1.44"/>
   <circle  fill="none" cx="46.7433" cy="38.9764" connectorname="+" stroke="#9A916C" r="2.40378" id="connector3pin" stroke-width="1.44"/>
  </g>
 </g>
</svg>

<?xml version="1.0" encoding="utf-8"?>
<!-- Generator: Adobe Illustrator 16.0.0, SVG Export Plug-In . SVG Version: 6.00 Build 0)  -->
<!DOCTYPE svg PUBLIC "-//W3C//DTD SVG 1.1//EN" "http://www.w3.org/Graphics/SVG/1.1/DTD/svg11.dtd">
<svg version="1.1" id="Ebene_1" xmlns="http://www.w3.org/2000/svg" xmlns:xlink="http://www.w3.org/1999/xlink" x="0px" y="0px"
	 width="56.693px" height="56.693px" viewBox="0 0 56.693 56.693" enable-background="new 0 0 56.693 56.693" xml:space="preserve">
<desc>Fritzing breadboard generated by brd2svg</desc>
<g id="breadboard">
	<g id="icon">
		<path fill="#B0938F" d="M0,28.346c-0.029,15.655,12.638,28.37,28.293,28.399c15.656,0.029,28.371-12.638,28.4-28.293
			c0-0.035,0-0.071,0-0.106C56.722,12.691,44.055-0.024,28.4-0.053S0.029,12.585,0,28.24C0,28.275,0,28.311,0,28.346z
			 M16.679,34.724c0-0.338,0.273-0.612,0.612-0.612c0.338,0,0.612,0.274,0.612,0.612l0,0c0,0.338-0.274,0.612-0.612,0.612
			C16.953,35.337,16.679,35.062,16.679,34.724z M34.112,17.292c0-0.339,0.274-0.612,0.612-0.612s0.612,0.273,0.612,0.612
			c0,0.338-0.274,0.611-0.612,0.611S34.112,17.63,34.112,17.292z M8.237,17.717c0-0.93,0.753-1.685,1.684-1.685
			c0.93-0.001,1.684,0.753,1.685,1.683c0,0.001,0,0.001,0,0.002c0,0.93-0.753,1.685-1.683,1.685
			c-0.931,0.001-1.685-0.753-1.686-1.683C8.237,17.718,8.237,17.718,8.237,17.717z M45.059,38.976c0-0.93,0.754-1.684,1.684-1.684
			c0.931,0,1.685,0.754,1.685,1.684l0,0c0,0.93-0.754,1.684-1.685,1.684C45.813,40.66,45.059,39.906,45.059,38.976z"/>
		<path fill="#672E58" d="M44.328,28.263c3.083-1.149,5.283-4.111,5.283-7.595c0-4.48-3.632-8.112-8.112-8.112
			c-1.949,0-3.736,0.688-5.135,1.833c0.056-0.384,0.095-0.774,0.095-1.175c0-4.48-3.632-8.112-8.112-8.112
			c-4.48,0-8.112,3.632-8.112,8.112c0,0.411,0.041,0.811,0.099,1.205c-1.404-1.163-3.206-1.863-5.172-1.863
			c-4.48,0-8.112,3.632-8.112,8.112c0,3.483,2.2,6.445,5.283,7.595c-3.083,1.149-5.283,4.11-5.283,7.595
			c0,4.48,3.632,8.112,8.112,8.112c1.98,0,3.793-0.712,5.202-1.89c-0.079,0.454-0.128,0.919-0.128,1.396
			c0,4.48,3.632,8.111,8.112,8.111c4.48,0,8.112-3.631,8.112-8.111c0-0.465-0.048-0.918-0.123-1.362
			c1.402,1.159,3.201,1.855,5.163,1.855c4.48,0,8.112-3.632,8.112-8.112C49.611,32.374,47.411,29.413,44.328,28.263z M11.605,17.717
			c0,0.93-0.753,1.685-1.683,1.685c-0.931,0.001-1.685-0.753-1.686-1.683c0-0.001,0-0.001,0-0.002c0-0.93,0.753-1.685,1.684-1.685
			c0.93-0.001,1.684,0.753,1.685,1.683C11.605,17.716,11.605,17.716,11.605,17.717z M17.292,35.337
			c-0.339,0-0.612-0.274-0.612-0.612s0.273-0.612,0.612-0.612c0.338,0,0.612,0.274,0.612,0.612S17.63,35.337,17.292,35.337z
			 M34.724,17.903c-0.338,0-0.612-0.273-0.612-0.611c0-0.339,0.274-0.612,0.612-0.612s0.612,0.273,0.612,0.612
			C35.337,17.63,35.062,17.903,34.724,17.903z M48.427,38.976c0,0.93-0.754,1.684-1.685,1.684c-0.93,0-1.684-0.754-1.684-1.684
			s0.754-1.684,1.684-1.684C47.674,37.293,48.427,38.047,48.427,38.976z"/>
		<g>
			<title>layer 21</title>
			<g>
				<title>text:-</title>
				<text transform="matrix(1 0 0 1 16.1062 19.3464)" fill="#FFFFFF" font-family="'OCRA'" font-size="5.8464">-</text>
			</g>
			<g>
				<title>text:+</title>
				<text transform="matrix(1 0 0 1 37.3464 42.3865)" fill="#FFFFFF" font-family="'OCRA'" font-size="5.8464">+</text>
			</g>
			<g>
				<title>element:U$1</title>
				<g>
					<title>package:PETAL-NOHOLE-2SIDE</title>
				</g>
			</g>
			<g>
				<title>element:U$2</title>
				<g>
					<title>package:LOGO-LILYPAD</title>
				</g>
			</g>
			<g>
				<title>element:U$4</title>
				<g>
					<title>package:PETAL-NOHOLE-2SIDE</title>
				</g>
			</g>
			<g>
				<title>element:U$6</title>
				<g>
					<title>package:PETAL-NOHOLE-2SIDE</title>
				</g>
			</g>
			<g>
				<title>element:U$7</title>
				<g>
					<title>package:PETAL-NOHOLE-2SIDE</title>
				</g>
			</g>
			<g>
				<title>element:U$8</title>
				<g>
					<title>package:PETAL-SMALL-2SIDE</title>
				</g>
			</g>
			<g>
				<title>element:U$9</title>
				<g>
					<title>package:PETAL-SMALL-2SIDE</title>
				</g>
			</g>
		</g>
		<g>
			<title>layer 1</title>
			<g>
				<title>element:B1</title>
				<g>
					<title>package:BUZZER-CCV</title>
				</g>
			</g>
			<g>
				<title>element:U$1</title>
				<g>
					<title>package:PETAL-NOHOLE-2SIDE</title>
					<g>
						<title>polygon</title>
						<path fill="#E8E8E8" d="M48.7,24.459l0.902-0.495l0.815-0.626l0.711-0.745l0.588-0.844l0.452-0.924l0.307-0.982l0.151-1.018
							l-0.005-1.028l-0.163-1.017l-0.315-0.979l-0.462-0.92l-0.565-0.859l-0.689-0.763l-0.799-0.648l-0.889-0.52l-0.957-0.377
							l-1.004-0.227l-1.026-0.07l-1.024,0.088l-1,0.242l-0.951,0.394l-0.879,0.534l1.189,0.23l1.146,0.397l1.077,0.556l0.987,0.703
							l0.877,0.837l0.749,0.953l0.606,1.05l0.45,1.125l0.286,1.178l0.116,1.207l-0.058,1.211l-0.229,1.19L48.7,24.459"/>
					</g>
				</g>
			</g>
			<g>
				<title>element:U$2</title>
				<g>
					<title>package:LOGO-LILYPAD</title>
				</g>
			</g>
			<g>
				<title>element:U$4</title>
				<g>
					<title>package:PETAL-NOHOLE-2SIDE</title>
					<g>
						<title>polygon</title>
						<path fill="#E8E8E8" d="M35.149,8.787l0.023-1.028l-0.135-1.02l-0.29-0.987L34.311,4.82l-0.574-0.854l-0.698-0.756
							L32.234,2.57l-0.894-0.51L30.38,1.693l-1.006-0.216l-1.027-0.06l-1.027,0.06l-1.006,0.216L25.352,2.06l-0.894,0.51
							l-0.805,0.641l-0.698,0.756L22.382,4.82l-0.437,0.932l-0.289,0.987l-0.136,1.02l0.023,1.028l0.794-0.915l0.917-0.793
							l1.02-0.654l1.104-0.504l1.163-0.341l1.199-0.173h1.213l1.199,0.173l1.163,0.341l1.104,0.504l1.02,0.654l0.917,0.793
							L35.149,8.787"/>
					</g>
				</g>
			</g>
			<g>
				<title>element:U$6</title>
				<g>
					<title>package:PETAL-NOHOLE-2SIDE</title>
					<g>
						<title>polygon</title>
						<path fill="#E8E8E8" d="M21.544,47.905l-0.023,1.029l0.136,1.02l0.289,0.987l0.437,0.932l0.574,0.854l0.698,0.757l0.805,0.64
							l0.894,0.51L26.313,55l1.006,0.217l1.027,0.059l1.027-0.059L30.38,55l0.961-0.367l0.894-0.51l0.805-0.64l0.698-0.757
							l0.574-0.854l0.437-0.932l0.29-0.987l0.135-1.02l-0.023-1.029l-0.794,0.916l-0.917,0.793l-1.02,0.654l-1.104,0.504
							l-1.163,0.341l-1.199,0.173H27.74l-1.199-0.173l-1.163-0.341l-1.104-0.504l-1.02-0.654l-0.917-0.793L21.544,47.905"/>
					</g>
				</g>
			</g>
			<g>
				<title>element:U$7</title>
				<g>
					<title>package:PETAL-NOHOLE-2SIDE</title>
					<g>
						<title>polygon</title>
						<path fill="#E8E8E8" d="M7.993,32.234l-0.902,0.495l-0.815,0.626L5.564,34.1l-0.588,0.844l-0.452,0.924L4.218,36.85
							l-0.151,1.018l0.005,1.028l0.163,1.017l0.315,0.979l0.462,0.92l0.565,0.859l0.689,0.764l0.799,0.647l0.889,0.52l0.957,0.377
							l1.004,0.227l1.026,0.07l1.024-0.088l1-0.242l0.951-0.394l0.879-0.534l-1.189-0.23l-1.146-0.397l-1.077-0.556l-0.987-0.703
							l-0.877-0.837L8.77,40.341l-0.606-1.05l-0.45-1.125l-0.286-1.178l-0.116-1.207l0.058-1.211l0.229-1.19L7.993,32.234"/>
					</g>
				</g>
			</g>
			<g>
				<title>element:U$8</title>
				<g>
					<title>package:PETAL-SMALL-2SIDE</title>
					<g>
						<title>polygon</title>
						<path fill="#E8E8E8" d="M14.796,12.676l-0.879-0.534l-0.951-0.394l-1-0.242l-1.024-0.088l-1.026,0.07l-1.004,0.227
							l-0.957,0.377l-0.889,0.52L6.266,13.26l-0.689,0.763l-0.565,0.859l-0.462,0.92L4.234,16.78l-0.163,1.017l-0.005,1.028
							l0.151,1.018l0.307,0.982l0.452,0.924l0.588,0.844l0.711,0.745l0.815,0.626l0.902,0.495l-0.396-1.146l-0.229-1.19
							l-0.058-1.211l0.116-1.207l0.286-1.178l0.45-1.125l0.606-1.05l0.749-0.953l0.877-0.837l0.987-0.703l1.077-0.556l1.146-0.397
							L14.796,12.676"/>
					</g>
				</g>
			</g>
			<g>
				<title>element:U$9</title>
				<g>
					<title>package:PETAL-SMALL-2SIDE</title>
					<g>
						<title>polygon</title>
						<path fill="#E8E8E8" d="M41.869,44.017l0.879,0.534l0.951,0.394l1,0.242l1.024,0.088l1.026-0.07l1.004-0.227l0.957-0.377
							l0.889-0.52l0.799-0.647l0.689-0.764l0.565-0.859l0.462-0.92l0.315-0.979l0.163-1.017l0.005-1.028l-0.151-1.018l-0.307-0.982
							l-0.452-0.924L51.1,34.1l-0.711-0.745l-0.815-0.626l-0.902-0.495l0.396,1.146l0.229,1.19l0.058,1.211l-0.116,1.207
							l-0.286,1.178l-0.45,1.125l-0.606,1.05l-0.749,0.953l-0.877,0.837l-0.987,0.703l-1.077,0.556l-1.146,0.397L41.869,44.017"/>
					</g>
				</g>
			</g>
		</g>
		<circle id="connector2pin" fill="none" stroke="#9A916C" stroke-width="1.44" cx="9.922" cy="17.716" r="2.404"/>
		<circle id="connector3pin" fill="none" stroke="#9A916C" stroke-width="1.44" cx="46.743" cy="38.977" r="2.404"/>
	</g>
</g>
<g>
	<title>element:U$1</title>
</g>
<g>
	<rect x="33.591" y="16.959" width="2.268" height="2.59"/>
	<rect x="40.226" y="24.471" fill="#F7BD13" width="3.994" height="7.086"/>
	<rect x="12.472" y="24.471" fill="#F7BD13" width="3.994" height="7.086"/>
	<rect x="40.226" y="24.471" opacity="0.34" fill="#FFFFFF" enable-background="new    " width="3.994" height="0.211"/>
	<rect x="12.472" y="24.471" opacity="0.34" fill="#FFFFFF" enable-background="new    " width="3.994" height="0.211"/>
	<path fill="#B3B3B3" d="M35.628,17.609c0.135-0.188,0.229-0.403,0.229-0.65c0-0.626-0.508-1.134-1.134-1.134
		c-0.461,0-0.854,0.278-1.031,0.673c-1.621-0.753-3.424-1.186-5.331-1.186c-7.008,0-12.688,5.68-12.688,12.688
		c0,1.914,0.444,3.718,1.205,5.343c-0.42,0.165-0.721,0.57-0.721,1.051c0,0.626,0.508,1.134,1.134,1.134
		c0.265,0,0.497-0.104,0.69-0.257c0.823,1.17,1.833,2.199,2.995,3.033v6.72h14.74v-6.697c3.224-2.301,5.332-6.063,5.332-10.325
		C41.049,23.698,38.903,19.903,35.628,17.609z"/>
	<path opacity="0.34" fill="#FFFFFF" enable-background="new    " d="M17.291,35.526c-0.626,0-1.054-0.488-1.054-1.114
		c0-0.479,0.298-0.834,0.719-1l-0.078-0.069c-0.42,0.165-0.721,0.57-0.721,1.051C16.157,35.018,16.665,35.526,17.291,35.526"/>
	<path fill="#333333" d="M35.717,44.687V37.99c3.224-2.301,5.332-6.063,5.332-10.325V28c0,4.263-2.108,8.024-5.332,10.325v6.697"/>
	<path opacity="0.34" fill="#FFFFFF" enable-background="new    " d="M15.674,28.162c0-7.007,5.68-12.688,12.688-12.688
		c1.907,0,3.75,0.353,5.374,1.106c0.176-0.396,0.528-0.669,0.989-0.669c0.626,0,1.134,0.583,1.134,1.209v-0.162
		c0-0.626-0.508-1.134-1.134-1.134c-0.461,0-0.854,0.278-1.03,0.673c-1.623-0.753-3.426-1.186-5.333-1.186
		c-7.008,0-12.688,5.68-12.688,12.688V28.162z"/>
	<rect x="20.976" y="45.023" fill="#333333" width="14.74" height="0.089"/>
</g>
<text transform="matrix(-1 0 0 -1 37.3464 30.1687)"><tspan x="0" y="0" fill="#E6E6E6" font-family="'OCRA'" font-size="4">CCV084</tspan><tspan x="0" y="4.8" fill="#E6E6E6" font-family="'OCRA'" font-size="4">B16 G</tspan><tspan x="0" y="9.601" fill="#E6E6E6" font-family="'OCRA'" font-size="4">4510</tspan></text>
</svg>
